icons/link.svg

<svg width="24" height="24" viewBox="0 0 24 24" fill="none" xmlns="http://www.w3.org/2000/svg">
<path d="M13.0728 14.2481C11.0517 16.1366 9.05605 14.3325 7.54054 12.9164M10.9272 9.7519C12.9483 7.86335 14.944 9.66745 16.4595 11.0836M7.54054 12.9164L4.76652 15.5085C1.85891 18.2254 7.94955 24.0475 10.9272 21.2651L17.0879 15.5085C18.6698 14.0304 17.7426 12.2826 16.4595 11.0836M7.54054 12.9164C6.25738 11.7174 5.33023 9.96961 6.91211 8.49149L13.0728 2.73489C16.0504 -0.0474609 22.1411 5.7746 19.2335 8.49149C16.3259 11.2084 16.4595 11.0836 16.4595 11.0836" stroke="black" stroke-width="2" stroke-linecap="round" stroke-linejoin="round"/>
</svg>

<svg xmlns="http://www.w3.org/2000/svg" width="24" height="24" viewBox="0 0 24 24" fill="none" stroke="currentColor" stroke-width="2" stroke-linecap="round" stroke-linejoin="round">
<path d="M13.073 14.248c-2.021 1.889-4.017.085-5.532-1.332m3.386-3.164c2.021-1.889 4.017-.085 5.532 1.332m-8.918 1.832-2.774 2.592c-2.908 2.717 3.183 8.54 6.16 5.757l6.16-5.757c1.583-1.478.656-3.225-.628-4.424m-8.918 1.832c-1.284-1.199-2.21-2.946-.629-4.425l6.16-5.756c2.978-2.782 9.07 3.04 6.162 5.756l-2.775 2.593"/>
</svg>
